X: 2
T: Blackthorn Stick
R: jig
Z: 2012 John Chambers <jc:trillian.mit.edu>
B: NEFR #2
M: 6/8
L: 1/8
K: G
d |\
"G"gfg "C"e{f}ge | "G"dBG "C"AGE | "G"DEG "D7"AGA | "G"BGB "D2"ABd |\
"G"gfg "C"e{f}ge | "G"dBG "C"AGE | "G"DEG "D7"AGA | "G"BGG G2 ::
d |\
"G"edd gdd | edd gdd | Bdd "C"gfe | "G"dBG "D2"A2d |\
"G"gfg "C"age | "G"dBG "C"AGE | "G"DEG "D7"AGA | "G"BGG G2 :|


